icons-dark/actions/24/draw-square-inverted-corners.svg

<svg version="1.1" viewBox="0 0 24 24" xmlns="http://www.w3.org/2000/svg">
    <defs>
        <style type="text/css" id="current-color-scheme">.ColorScheme-Text {
        color:#eff0f1;
      }</style>
    </defs>
    <path class="ColorScheme-Text" d="m8 4v0.5078125 1.9921875c0 0.831-0.669 1.5-1.5 1.5h-2.5v1 6 1h2.5c0.831 0 1.5 0.669 1.5 1.5v1.992188 0.507812h1 6 1v-0.507812-1.992188c0-0.831 0.669-1.5 1.5-1.5h1.992188 0.507812v-1-6-1h-0.507812-1.992188c-0.831 0-1.5-0.669-1.5-1.5v-2.5h-1-6-1zm1 1h6v1.5c0 1.385 1.115 2.5 2.5 2.5h1.5v6h-1.5c-1.385 0-2.5 1.115-2.5 2.5v1.5h-6v-1.5c0-1.385-1.115-2.5-2.5-2.5h-1.5v-6h1.5c1.385 0 2.5-1.115 2.5-2.5v-1.5z" fill="currentColor"/>
    <path d="m8.8337979 18.384395c-0.0113342-0.967053-0.0138163-1.005062-0.0821632-1.258176-0.2625075-0.972169-0.9775249-1.683446-1.9519162-1.941703-0.2656537-0.070411-0.2940728-0.072271-1.2773687-0.083602l-1.0056703-0.011587v-6.371439h0.9268315c1.029386 0 1.2245898-0.019778 1.6296725-0.1651158 0.265585-0.095288 0.630056-0.312155 0.8677242-0.5163117 0.3065775-0.2633492 0.6042463-0.7173668 0.7540575-1.150121 0.1181484-0.341291 0.145076-0.6317892 0.1452509-1.5669915l1.615e-4 -0.8615062h6.4308164v0.9054365c0 0.9726949 0.01992 1.184681 0.145683 1.5501953 0.142179 0.4132285 0.339806 0.719347 0.674421 1.044661 0.346939 0.337293 0.720473 0.5459187 1.225658 0.6845531 0.195086 0.053536 0.292591 0.058977 1.231218 0.068706l1.019353 0.010566v6.3724323l-0.868844 1.62e-4c-0.620346 1.09e-4 -0.943198 0.01141-1.128814 0.03949-1.097149 0.165999-1.943891 0.934789-2.234917 2.02917-0.03695 0.138955-0.0472 0.355488-0.05648 1.194046l-0.01134 1.02431h-6.4216473l-0.011687-0.997176z" class="ColorScheme-Text" fill="currentColor" fill-opacity=".50196078"/>
</svg>

<svg xmlns="http://www.w3.org/2000/svg" viewBox="0 0 24 24">
  <defs id="defs3051">
    <style type="text/css" id="current-color-scheme">
      .ColorScheme-Text {
        color:#eff0f1;
      }
      </style>
  </defs>
 <path style="fill:currentColor;fill-opacity:1;stroke:none" 
     d="M 8 4 L 8 4.5078125 L 8 6.5 C 8 7.331 7.331 8 6.5 8 L 4 8 L 4 9 L 4 15 L 4 16 L 6.5 16 C 7.331 16 8 16.669 8 17.5 L 8 19.492188 L 8 20 L 9 20 L 15 20 L 16 20 L 16 19.492188 L 16 17.5 C 16 16.669 16.669 16 17.5 16 L 19.492188 16 L 20 16 L 20 15 L 20 9 L 20 8 L 19.492188 8 L 17.5 8 C 16.669 8 16 7.331 16 6.5 L 16 4 L 15 4 L 9 4 L 8 4 z M 9 5 L 15 5 L 15 6.5 C 15 7.885 16.115 9 17.5 9 L 19 9 L 19 15 L 17.5 15 C 16.115 15 15 16.115 15 17.5 L 15 19 L 9 19 L 9 17.5 C 9 16.115 7.885 15 6.5 15 L 5 15 L 5 9 L 6.5 9 C 7.885 9 9 7.885 9 6.5 L 9 5 z "
     class="ColorScheme-Text"
     />
</svg>
